kora/status/symbolic/semi-starred-symbolic-rtl.svg

<svg xmlns="http://www.w3.org/2000/svg" style="clip-rule:evenodd;fill-rule:evenodd;stroke-linejoin:round;stroke-miterlimit:2" version="1.1" viewBox="0 0 16 16">
 <defs>
  <style id="current-color-scheme" type="text/css">
   .ColorScheme-Text { color:#dfdfdf; } .ColorScheme-Highlight { color:#4285f4; } .ColorScheme-NeutralText { color:#ff9800; } .ColorScheme-PositiveText { color:#4caf50; } .ColorScheme-NegativeText { color:#f44336; }
  </style>
 </defs>
 <path style="fill-opacity:.3;;fill:currentColor;" class="ColorScheme-Text" d="m8 0 2.12 5.88 5.88 0.32-4.57 3.71 1.51 6.09-4.94-3.6-4.94 3.6 1.51-6.09-4.57-3.71 5.88-0.32 2.12-5.88z"/>
 <path style="fill-rule:nonzero;fill:currentColor;" class="ColorScheme-Text" d="m8 0 2.12 5.88 5.88 0.32-4.57 3.71 1.51 6.09-4.94-3.6v-12.4z"/>
</svg>

<svg xmlns="http://www.w3.org/2000/svg" width="16" height="16">
 <path style="opacity:0.3;fill:#dfdfdf" d="M 8,0 10.12,5.88 16,6.2 11.43,9.91 12.94,16 8,12.4 3.06,16 4.57,9.91 0,6.2 5.88,5.88 Z"/>
 <path d="M 8,0 10.12,5.88 16,6.2 11.43,9.91 12.94,16 8,12.4 Z" style="fill:#dfdfdf"/>
</svg>
